assets/img/encrypted-integrity.svg

<svg fill="none" height="485" viewBox="0 0 809 485" width="809" xmlns="http://www.w3.org/2000/svg" xmlns:xlink="http://www.w3.org/1999/xlink"><mask id="a" fill="#fff"><path d="m210.856 296.744-103.48-59.744-103.74556 59.891-3.63044 2.113v123.999l95.8451 55.317 7.1369 4.118 4.393 2.562 3.866-2.267 7.686-4.415 95.827-55.317-.002-118.968v-5.031zm-107.873 176.172-94.71737-54.692v-109.107l94.71737 54.685zm4.131-116.257-95.2193-54.976 95.4853-55.128 95.225 54.976z" fill="#fff"/></mask><mask id="b" fill="#fff"><path d="m210.856 296.744-103.48-59.744-103.74556 59.891-3.63044 2.113v123.999l95.8451 55.317 7.1369 4.118 4.393 2.562 3.866-2.267 7.686-4.415 95.827-55.317-.002-118.968v-5.031zm-107.873 176.172-94.71737-54.692v-109.107l94.71737 54.685zm4.131-116.257-95.2193-54.976 95.4853-55.128 95.225 54.976z" fill="#fff"/></mask><mask id="c" fill="#fff"><path d="m804.856 296.744-103.48-59.744-103.746 59.891-3.63 2.113v123.999l95.845 55.317 7.137 4.118 4.393 2.562 3.866-2.267 7.686-4.415 95.827-55.317-.002-118.968v-5.031zm-107.873 176.172-94.717-54.692v-109.107l94.717 54.685zm4.131-116.257-95.219-54.976 95.485-55.128 95.225 54.976z" fill="#fff"/></mask><mask id="d" fill="#fff"><path d="m804.856 296.744-103.48-59.744-103.746 59.891-3.63 2.113v123.999l95.845 55.317 7.137 4.118 4.393 2.562 3.866-2.267 7.686-4.415 95.827-55.317-.002-118.968v-5.031zm-107.873 176.172-94.717-54.692v-109.107l94.717 54.685zm4.131-116.257-95.219-54.976 95.485-55.128 95.225 54.976z" fill="#fff"/></mask><mask id="e" fill="#fff"><path d="m402.993 80.4391-6.18 3.5675v-7.7423h12.665c21.061 0 38.125-17.0679 38.125-38.1322 0-21.0606-17.068-38.1321-38.125-38.1321l-57.005.00351124c-21.06 0-38.132 17.06788876-38.132 38.13208876 0 21.0607 17.075 38.1322 38.132 38.1322h12.662v26.0292l-100.135 57.83v159.361l137.995 79.681 138.005-79.677-.004-159.362zm-27.788-14.2418h-22.728c-15.474 0-28.062-12.5879-28.062-28.062 0-15.4742 12.588-28.062 28.062-28.062h57.001c15.467 0 28.059 12.5878 28.059 28.062 0 15.4741-12.588 28.062-28.059 28.062h-22.731v87.4507c-.654.709-2.272 1.889-5.769 1.889-3.417 0-5.025-1.071-5.769-1.977l.003-87.3623zm22.146 317.4387-121.735-70.292v-140.224l121.735 70.284zm5.305-149.421-122.382-70.653 84.859-48.993v22.925c-6.246 3.842-10.235 9.695-10.018 16.184.362 10.972 12.437 19.466 26.956 18.978 3.771-.151 7.324-.906 10.562-2.089l36.137 27.749 29.663-17.261-52.707-21.117c1.32-2.496 2.043-5.224 1.969-8.047-.217-6.405-4.511-11.914-10.888-15.337v-40.2707l6.18-3.5674 122.382 70.6531z" fill="#fff"/></mask><mask id="f" fill="#fff"><path d="m422.975 38.1399c0-9.4733-7.707-17.1838-17.18-17.1838h-49.649c-9.473 0-17.18 7.7106-17.18 17.1838s7.707 17.1838 17.18 17.1838h49.649c9.47 0 17.18-7.7107 17.18-17.1838zm-73.943 0c0-3.9326 3.184-7.1173 7.114-7.1173h49.648c3.922 0 7.114 3.1847 7.114 7.1173s-3.192 7.1173-7.114 7.1173h-49.648c-3.93 0-7.114-3.1847-7.114-7.1173z" fill="#fff"/></mask><g fill="#000"><path d="m210.856 296.744-103.48-59.744-103.74556 59.891-3.63044 2.113v123.999l95.8451 55.317 7.1369 4.118 4.393 2.562 3.866-2.267 7.686-4.415 95.827-55.317-.002-118.968v-5.031zm-107.873 176.172-94.71737-54.692v-109.107l94.71737 54.685zm4.131-116.257-95.2193-54.976 95.4853-55.128 95.225 54.976z" mask="url(#a)" stroke="#fff" stroke-width="4"/><path d="m64.1542 365.174c-4.9374-8.818-14.3562-12.965-21.0697-9.278-6.715 3.686-8.1657 13.83-3.2425 22.652 1.2887 2.279 2.8924 4.242 4.6576 5.866l-5.7868 31.095 20.1722 12.886-3.6052-39.25c1.9725.035 3.8994-.38 5.6314-1.318 6.6944-3.681 8.1573-13.83 3.2426-22.653z"/><path d="m210.856 296.744-103.48-59.744-103.74556 59.891-3.63044 2.113v123.999l95.8451 55.317 7.1369 4.118 4.393 2.562 3.866-2.267 7.686-4.415 95.827-55.317-.002-118.968v-5.031zm-107.873 176.172-94.71737-54.692v-109.107l94.71737 54.685zm4.131-116.257-95.2193-54.976 95.4853-55.128 95.225 54.976z" mask="url(#b)" stroke="#fff" stroke-width="4"/><path d="m64.1542 365.174c-4.9374-8.818-14.3562-12.965-21.0697-9.278-6.715 3.686-8.1657 13.83-3.2425 22.652 1.2887 2.279 2.8924 4.242 4.6576 5.866l-5.7868 31.095 20.1722 12.886-3.6052-39.25c1.9725.035 3.8994-.38 5.6314-1.318 6.6944-3.681 8.1573-13.83 3.2426-22.653z"/></g><path d="m109.754 363.084 99-57.084v113.418l-99 55.582z" fill="#fff"/><path d="m804.856 296.744-103.48-59.744-103.746 59.891-3.63 2.113v123.999l95.845 55.317 7.137 4.118 4.393 2.562 3.866-2.267 7.686-4.415 95.827-55.317-.002-118.968v-5.031zm-107.873 176.172-94.717-54.692v-109.107l94.717 54.685zm4.131-116.257-95.219-54.976 95.485-55.128 95.225 54.976z" fill="#000" mask="url(#c)" stroke="#fff" stroke-width="4"/><path d="m658.154 365.174c-4.937-8.818-14.356-12.965-21.069-9.278-6.715 3.686-8.166 13.83-3.243 22.652 1.289 2.279 2.893 4.242 4.658 5.866l-5.787 31.095 20.172 12.886-3.605-39.25c1.973.035 3.899-.38 5.631-1.318 6.695-3.681 8.158-13.83 3.243-22.653z" fill="#000"/><path d="m804.856 296.744-103.48-59.744-103.746 59.891-3.63 2.113v123.999l95.845 55.317 7.137 4.118 4.393 2.562 3.866-2.267 7.686-4.415 95.827-55.317-.002-118.968v-5.031zm-107.873 176.172-94.717-54.692v-109.107l94.717 54.685zm4.131-116.257-95.219-54.976 95.485-55.128 95.225 54.976z" fill="#000" mask="url(#d)" stroke="#fff" stroke-width="4"/><path d="m658.154 365.174c-4.937-8.818-14.356-12.965-21.069-9.278-6.715 3.686-8.166 13.83-3.243 22.652 1.289 2.279 2.893 4.242 4.658 5.866l-5.787 31.095 20.172 12.886-3.605-39.25c1.973.035 3.899-.38 5.631-1.318 6.695-3.681 8.158-13.83 3.243-22.653z" fill="#000"/><path d="m703.754 363.084 99-57.084v113.418l-99 55.582z" fill="#fff"/><path d="m402.993 80.4391-6.18 3.5675v-7.7423h12.665c21.061 0 38.125-17.0679 38.125-38.1322 0-21.0606-17.068-38.1321-38.125-38.1321l-57.005.00351124c-21.06 0-38.132 17.06788876-38.132 38.13208876 0 21.0607 17.075 38.1322 38.132 38.1322h12.662v26.0292l-100.135 57.83v159.361l137.995 79.681 138.005-79.677-.004-159.362zm-27.788-14.2418h-22.728c-15.474 0-28.062-12.5879-28.062-28.062 0-15.4742 12.588-28.062 28.062-28.062h57.001c15.467 0 28.059 12.5878 28.059 28.062 0 15.4741-12.588 28.062-28.059 28.062h-22.731v87.4507c-.654.709-2.272 1.889-5.769 1.889-3.417 0-5.025-1.071-5.769-1.977l.003-87.3623zm22.146 317.4387-121.735-70.292v-140.224l121.735 70.284zm5.305-149.421-122.382-70.653 84.859-48.993v22.925c-6.246 3.842-10.235 9.695-10.018 16.184.362 10.972 12.437 19.466 26.956 18.978 3.771-.151 7.324-.906 10.562-2.089l36.137 27.749 29.663-17.261-52.707-21.117c1.32-2.496 2.043-5.224 1.969-8.047-.217-6.405-4.511-11.914-10.888-15.337v-40.2707l6.18-3.5674 122.382 70.6531z" fill="#000" mask="url(#e)" stroke="#fff" stroke-width="4"/><path d="m422.975 38.1399c0-9.4733-7.707-17.1838-17.18-17.1838h-49.649c-9.473 0-17.18 7.7106-17.18 17.1838s7.707 17.1838 17.18 17.1838h49.649c9.47 0 17.18-7.7107 17.18-17.1838zm-73.943 0c0-3.9326 3.184-7.1173 7.114-7.1173h49.648c3.922 0 7.114 3.1847 7.114 7.1173s-3.192 7.1173-7.114 7.1173h-49.648c-3.93 0-7.114-3.1847-7.114-7.1173z" fill="#000" mask="url(#f)" stroke="#fff" stroke-width="4"/><path d="m406 242 127.5-74v148.5l-127.5 71.5z" fill="#fff"/></svg>

<svg width="809" height="485" viewBox="0 0 809 485" fill="none" xmlns="http://www.w3.org/2000/svg">
<mask id="path-1-inside-1_14_777" fill="white">
<path d="M210.856 296.744L107.376 237L3.63044 296.891L0 299.004V423.003L95.8451 478.32L102.982 482.438L107.375 485L111.241 482.733L118.927 478.318L214.754 423.001L214.752 304.033V299.002L210.856 296.744ZM102.983 472.916L8.26563 418.224V309.117L102.983 363.802V472.916ZM107.114 356.659L11.8947 301.683L107.38 246.555L202.605 301.531L107.114 356.659Z"/>
</mask>
<path d="M210.856 296.744L107.376 237L3.63044 296.891L0 299.004V423.003L95.8451 478.32L102.982 482.438L107.375 485L111.241 482.733L118.927 478.318L214.754 423.001L214.752 304.033V299.002L210.856 296.744ZM102.983 472.916L8.26563 418.224V309.117L102.983 363.802V472.916ZM107.114 356.659L11.8947 301.683L107.38 246.555L202.605 301.531L107.114 356.659Z" fill="black" stroke="white" stroke-width="4" mask="url(#path-1-inside-1_14_777)"/>
<path d="M64.1542 365.174C59.2168 356.356 49.798 352.209 43.0845 355.896C36.3695 359.582 34.9188 369.726 39.842 378.548C41.1307 380.827 42.7344 382.79 44.4996 384.414L38.7128 415.509L58.885 428.395L55.2798 389.145C57.2523 389.18 59.1792 388.765 60.9112 387.827C67.6056 384.146 69.0685 373.997 64.1538 365.174L64.1542 365.174Z" fill="black"/>
<mask id="path-3-inside-2_14_777" fill="white">
<path d="M210.856 296.744L107.376 237L3.63044 296.891L0 299.004V423.003L95.8451 478.32L102.982 482.438L107.375 485L111.241 482.733L118.927 478.318L214.754 423.001L214.752 304.033V299.002L210.856 296.744ZM102.983 472.916L8.26563 418.224V309.117L102.983 363.802V472.916ZM107.114 356.659L11.8947 301.683L107.38 246.555L202.605 301.531L107.114 356.659Z"/>
</mask>
<path d="M210.856 296.744L107.376 237L3.63044 296.891L0 299.004V423.003L95.8451 478.32L102.982 482.438L107.375 485L111.241 482.733L118.927 478.318L214.754 423.001L214.752 304.033V299.002L210.856 296.744ZM102.983 472.916L8.26563 418.224V309.117L102.983 363.802V472.916ZM107.114 356.659L11.8947 301.683L107.38 246.555L202.605 301.531L107.114 356.659Z" fill="black" stroke="white" stroke-width="4" mask="url(#path-3-inside-2_14_777)"/>
<path d="M64.1542 365.174C59.2168 356.356 49.798 352.209 43.0845 355.896C36.3695 359.582 34.9188 369.726 39.842 378.548C41.1307 380.827 42.7344 382.79 44.4996 384.414L38.7128 415.509L58.885 428.395L55.2798 389.145C57.2523 389.18 59.1792 388.765 60.9112 387.827C67.6056 384.146 69.0685 373.997 64.1538 365.174L64.1542 365.174Z" fill="black"/>
<path d="M109.754 363.084L208.754 306V419.418L109.754 475V363.084Z" fill="white"/>
<mask id="path-6-inside-3_14_777" fill="white">
<path d="M804.856 296.744L701.376 237L597.63 296.891L594 299.004V423.003L689.845 478.32L696.982 482.438L701.375 485L705.241 482.733L712.927 478.318L808.754 423.001L808.752 304.033V299.002L804.856 296.744ZM696.983 472.916L602.266 418.224V309.117L696.983 363.802V472.916ZM701.114 356.659L605.895 301.683L701.38 246.555L796.605 301.531L701.114 356.659Z"/>
</mask>
<path d="M804.856 296.744L701.376 237L597.63 296.891L594 299.004V423.003L689.845 478.32L696.982 482.438L701.375 485L705.241 482.733L712.927 478.318L808.754 423.001L808.752 304.033V299.002L804.856 296.744ZM696.983 472.916L602.266 418.224V309.117L696.983 363.802V472.916ZM701.114 356.659L605.895 301.683L701.38 246.555L796.605 301.531L701.114 356.659Z" fill="black" stroke="white" stroke-width="4" mask="url(#path-6-inside-3_14_777)"/>
<path d="M658.154 365.174C653.217 356.356 643.798 352.209 637.085 355.896C630.37 359.582 628.919 369.726 633.842 378.548C635.131 380.827 636.735 382.79 638.5 384.414L632.713 415.509L652.885 428.395L649.28 389.145C651.253 389.18 653.179 388.765 654.911 387.827C661.606 384.146 663.069 373.997 658.154 365.174L658.154 365.174Z" fill="black"/>
<mask id="path-8-inside-4_14_777" fill="white">
<path d="M804.856 296.744L701.376 237L597.63 296.891L594 299.004V423.003L689.845 478.32L696.982 482.438L701.375 485L705.241 482.733L712.927 478.318L808.754 423.001L808.752 304.033V299.002L804.856 296.744ZM696.983 472.916L602.266 418.224V309.117L696.983 363.802V472.916ZM701.114 356.659L605.895 301.683L701.38 246.555L796.605 301.531L701.114 356.659Z"/>
</mask>
<path d="M804.856 296.744L701.376 237L597.63 296.891L594 299.004V423.003L689.845 478.32L696.982 482.438L701.375 485L705.241 482.733L712.927 478.318L808.754 423.001L808.752 304.033V299.002L804.856 296.744ZM696.983 472.916L602.266 418.224V309.117L696.983 363.802V472.916ZM701.114 356.659L605.895 301.683L701.38 246.555L796.605 301.531L701.114 356.659Z" fill="black" stroke="white" stroke-width="4" mask="url(#path-8-inside-4_14_777)"/>
<path d="M658.154 365.174C653.217 356.356 643.798 352.209 637.085 355.896C630.37 359.582 628.919 369.726 633.842 378.548C635.131 380.827 636.735 382.79 638.5 384.414L632.713 415.509L652.885 428.395L649.28 389.145C651.253 389.18 653.179 388.765 654.911 387.827C661.606 384.146 663.069 373.997 658.154 365.174L658.154 365.174Z" fill="black"/>
<path d="M703.754 363.084L802.754 306V419.418L703.754 475V363.084Z" fill="white"/>
<mask id="path-11-inside-5_14_777" fill="white">
<path d="M402.993 80.4391L396.813 84.0066V76.2643H409.478C430.539 76.2643 447.603 59.1964 447.603 38.1321C447.603 17.0715 430.535 0 409.478 0L352.473 0.00351124C331.413 0.00351124 314.341 17.0714 314.341 38.1356C314.341 59.1963 331.416 76.2678 352.473 76.2678H365.135V102.297L265 160.127V319.488L402.995 399.169L541 319.492L540.996 160.13L402.993 80.4391ZM375.205 66.1973H352.477C337.003 66.1973 324.415 53.6094 324.415 38.1353C324.415 22.6611 337.003 10.0733 352.477 10.0733H409.478C424.945 10.0733 437.537 22.6611 437.537 38.1353C437.537 53.6094 424.949 66.1973 409.478 66.1973H386.747V153.648C386.093 154.357 384.475 155.537 380.978 155.537C377.561 155.537 375.953 154.466 375.209 153.56L375.212 66.1977L375.205 66.1973ZM397.351 383.636L275.616 313.344V173.12L397.351 243.404V383.636ZM402.656 234.215L280.274 163.562L365.133 114.569V137.494C358.887 141.336 354.898 147.189 355.115 153.678C355.477 164.65 367.552 173.144 382.071 172.656C385.842 172.505 389.395 171.75 392.633 170.567L428.77 198.316L458.433 181.055L405.726 159.938C407.046 157.442 407.769 154.714 407.695 151.891C407.478 145.486 403.184 139.977 396.807 136.554V96.2833L402.987 92.7159L525.369 163.369L402.656 234.215Z"/>
</mask>
<path d="M402.993 80.4391L396.813 84.0066V76.2643H409.478C430.539 76.2643 447.603 59.1964 447.603 38.1321C447.603 17.0715 430.535 0 409.478 0L352.473 0.00351124C331.413 0.00351124 314.341 17.0714 314.341 38.1356C314.341 59.1963 331.416 76.2678 352.473 76.2678H365.135V102.297L265 160.127V319.488L402.995 399.169L541 319.492L540.996 160.13L402.993 80.4391ZM375.205 66.1973H352.477C337.003 66.1973 324.415 53.6094 324.415 38.1353C324.415 22.6611 337.003 10.0733 352.477 10.0733H409.478C424.945 10.0733 437.537 22.6611 437.537 38.1353C437.537 53.6094 424.949 66.1973 409.478 66.1973H386.747V153.648C386.093 154.357 384.475 155.537 380.978 155.537C377.561 155.537 375.953 154.466 375.209 153.56L375.212 66.1977L375.205 66.1973ZM397.351 383.636L275.616 313.344V173.12L397.351 243.404V383.636ZM402.656 234.215L280.274 163.562L365.133 114.569V137.494C358.887 141.336 354.898 147.189 355.115 153.678C355.477 164.65 367.552 173.144 382.071 172.656C385.842 172.505 389.395 171.75 392.633 170.567L428.77 198.316L458.433 181.055L405.726 159.938C407.046 157.442 407.769 154.714 407.695 151.891C407.478 145.486 403.184 139.977 396.807 136.554V96.2833L402.987 92.7159L525.369 163.369L402.656 234.215Z" fill="black" stroke="white" stroke-width="4" mask="url(#path-11-inside-5_14_777)"/>
<mask id="path-12-inside-6_14_777" fill="white">
<path d="M422.975 38.1399C422.975 28.6666 415.268 20.9561 405.795 20.9561H356.146C346.673 20.9561 338.966 28.6667 338.966 38.1399C338.966 47.6131 346.673 55.3237 356.146 55.3237H405.795C415.265 55.3237 422.975 47.613 422.975 38.1399ZM349.032 38.1399C349.032 34.2073 352.216 31.0226 356.146 31.0226H405.794C409.716 31.0226 412.908 34.2073 412.908 38.1399C412.908 42.0725 409.716 45.2572 405.794 45.2572H356.146C352.216 45.2572 349.032 42.0725 349.032 38.1399Z"/>
</mask>
<path d="M422.975 38.1399C422.975 28.6666 415.268 20.9561 405.795 20.9561H356.146C346.673 20.9561 338.966 28.6667 338.966 38.1399C338.966 47.6131 346.673 55.3237 356.146 55.3237H405.795C415.265 55.3237 422.975 47.613 422.975 38.1399ZM349.032 38.1399C349.032 34.2073 352.216 31.0226 356.146 31.0226H405.794C409.716 31.0226 412.908 34.2073 412.908 38.1399C412.908 42.0725 409.716 45.2572 405.794 45.2572H356.146C352.216 45.2572 349.032 42.0725 349.032 38.1399Z" fill="black" stroke="white" stroke-width="4" mask="url(#path-12-inside-6_14_777)"/>
<path d="M406 242L533.5 168V316.5L406 388V242Z" fill="white"/>
</svg>
